src/svg/24/hammer_outline_24.svg

<svg width="24" height="24" viewBox="0 0 24 24" fill="none" xmlns="http://www.w3.org/2000/svg">
<path fill-rule="evenodd" clip-rule="evenodd" d="M10.1231 3.83921C9.8398 4.07974 9.52078 4.39879 9.14611 4.77347L8.65684 5.26274L7.72199 4.32788C7.50051 4.10626 7.27347 3.88905 6.96815 3.78985C6.68697 3.69849 6.38409 3.69849 6.10291 3.78985C5.88783 3.85973 5.73076 3.97613 5.62441 4.0664L4.06639 5.62443C3.97611 5.73077 3.85972 5.88784 3.78984 6.10292C3.69848 6.3841 3.69848 6.68698 3.78984 6.96817C3.88904 7.27348 4.10624 7.50052 4.32787 7.722L5.26273 8.65685L4.77349 9.14609C4.39881 9.52075 4.07977 9.83978 3.83923 10.1231C3.58654 10.4208 3.36807 10.7377 3.24254 11.124C3.0533 11.7065 3.0533 12.3339 3.24254 12.9163C3.36807 13.3027 3.58654 13.6196 3.83923 13.9173C4.07977 14.2006 4.39881 14.5196 4.77349 14.8943L6.10342 16.2242C6.47809 16.5989 6.79711 16.918 7.08045 17.1585C7.37811 17.4112 7.69505 17.6297 8.08138 17.7552C8.66383 17.9444 9.29123 17.9444 9.87368 17.7552C10.26 17.6297 10.5769 17.4112 10.8746 17.1585C11.1579 16.918 11.477 16.5989 11.8516 16.2242L12.3409 15.735L17.888 21.2822L17.9037 21.2978C17.9887 21.3828 18.0864 21.4807 18.179 21.5593C18.2854 21.6495 18.4424 21.7659 18.6575 21.8358C18.9387 21.9272 19.2416 21.9272 19.5227 21.8358C19.7378 21.7659 19.8949 21.6495 20.0012 21.5593C20.0938 21.4807 20.1916 21.3828 20.2766 21.2978L21.2978 20.2766C21.3828 20.1916 21.4807 20.0938 21.5593 20.0012C21.6495 19.8949 21.7659 19.7378 21.8358 19.5227C21.9272 19.2416 21.9272 18.9387 21.8358 18.6575C21.7659 18.4424 21.6495 18.2853 21.5593 18.179C21.4807 18.0864 21.3828 17.9887 21.2978 17.9037L21.2822 17.888L15.735 12.3409L16.2243 11.8516C16.5989 11.4769 16.918 11.1579 17.1585 10.8746C17.4112 10.5769 17.6297 10.26 17.7552 9.87365C17.9444 9.29121 17.9444 8.6638 17.7552 8.08136C17.6297 7.69503 17.4112 7.37809 17.1585 7.08043C16.918 6.79709 16.5989 6.47807 16.2243 6.10341L14.8943 4.77347C14.5197 4.39879 14.2006 4.07974 13.9173 3.83921C13.6196 3.58651 13.3027 3.36805 12.9164 3.24252C12.3339 3.05327 11.7065 3.05327 11.1241 3.24252C10.7377 3.36805 10.4208 3.58651 10.1231 3.83921ZM5.21144 11.288C5.03103 11.5006 4.9773 11.6099 4.95445 11.6803C4.88266 11.9012 4.88266 12.1392 4.95445 12.3601C4.9773 12.4304 5.03103 12.5398 5.21144 12.7524C5.39868 12.9729 5.6648 13.24 6.07132 13.6465L7.35118 14.9264C7.7577 15.3329 8.02481 15.599 8.24537 15.7863C8.45789 15.9667 8.56728 16.0204 8.63761 16.0433C8.85854 16.1151 9.09652 16.1151 9.31745 16.0433C9.38778 16.0204 9.49717 15.9667 9.70969 15.7863C9.93025 15.599 10.1974 15.3329 10.6039 14.9264L14.9264 10.6039C15.3329 10.1973 15.5991 9.93022 15.7863 9.70967C15.9667 9.49715 16.0204 9.38776 16.0433 9.31742C16.1151 9.0965 16.1151 8.85852 16.0433 8.63759C16.0204 8.56726 15.9667 8.45786 15.7863 8.24534C15.5991 8.02479 15.3329 7.75768 14.9264 7.35116L13.6466 6.0713C13.24 5.66478 12.9729 5.39866 12.7524 5.21142C12.5399 5.03101 12.4305 4.97728 12.3601 4.95442C12.1392 4.88264 11.9012 4.88264 11.6803 4.95442C11.61 4.97728 11.5006 5.03101 11.2881 5.21142C11.0675 5.39866 10.8004 5.66478 10.3939 6.0713L6.07132 10.3938C5.6648 10.8004 5.39868 11.0675 5.21144 11.288ZM19.0901 19.9387L19.9387 19.0901L14.4622 13.6137L13.6137 14.4622L19.0901 19.9387ZM6.53553 7.38407L5.687 6.53554L6.53553 5.68701L7.38406 6.53554L6.53553 7.38407Z" fill="currentColor"/>
</svg>

<svg fill="none" height="24" width="24" xmlns="http://www.w3.org/2000/svg"><path clip-rule="evenodd" d="M10.123 3.84c-.283.24-.602.559-.977.933l-.49.49-.934-.935c-.221-.222-.449-.439-.754-.538a1.4 1.4 0 00-.865 0c-.215.07-.372.186-.479.276L4.066 5.624c-.09.107-.206.264-.276.479a1.4 1.4 0 000 .865c.099.305.316.533.538.754l.935.935-.49.49c-.374.374-.693.693-.934.976-.252.298-.47.615-.596 1.001a2.9 2.9 0 000 1.792c.125.387.344.704.596 1.001.24.284.56.603.934.977l1.33 1.33c.375.375.694.694.977.934.298.253.615.472 1.001.597a2.9 2.9 0 001.793 0c.386-.125.703-.344 1-.597.284-.24.603-.56.978-.934l.489-.489 5.547 5.547.016.016c.085.085.182.183.275.261.106.09.263.207.479.277a1.4 1.4 0 00.865 0 1.41 1.41 0 00.478-.277c.093-.078.19-.176.276-.261l1.02-1.021a4.27 4.27 0 00.262-.276 1.41 1.41 0 00.277-.478 1.4 1.4 0 000-.866 1.41 1.41 0 00-.277-.478c-.078-.093-.176-.19-.261-.275l-.016-.016-5.547-5.547.49-.49c.374-.374.693-.693.934-.976.252-.298.47-.615.596-1.001a2.9 2.9 0 000-1.793c-.125-.386-.344-.703-.596-1a17.83 17.83 0 00-.935-.978l-1.33-1.33a17.81 17.81 0 00-.977-.934c-.297-.252-.614-.471-1-.596a2.9 2.9 0 00-1.793 0c-.386.125-.703.344-1 .596zm-4.912 7.448c-.18.213-.234.322-.257.392a1.1 1.1 0 000 .68c.023.07.077.18.257.392.188.22.454.488.86.895l1.28 1.28c.407.406.674.672.894.86.213.18.322.233.393.256a1.1 1.1 0 00.68 0c.07-.023.18-.076.392-.257.22-.187.487-.453.894-.86l4.322-4.322c.407-.407.673-.674.86-.894.18-.213.234-.322.257-.393a1.1 1.1 0 000-.68c-.023-.07-.076-.18-.257-.392-.187-.22-.453-.487-.86-.894l-1.28-1.28a17.258 17.258 0 00-.894-.86c-.212-.18-.321-.234-.392-.257a1.1 1.1 0 00-.68 0c-.07.023-.18.077-.392.257-.22.188-.488.454-.894.86L6.07 10.394a17.68 17.68 0 00-.86.894zm13.88 8.65l.848-.848-5.477-5.476-.848.848zM6.535 7.385l-.849-.848.849-.849.848.849z" fill="currentColor" fill-rule="evenodd"/></svg>
